src/main/resources/img/object/function/Function_dark.svg

<svg width="16" height="16" version="1.1" viewBox="0 0 16 16"  xmlns="http://www.w3.org/2000/svg"><path d="m7 1c-1.6 0-3 1-3 3l-1e-7 2.5-1.4885-1e-7 -4.659e-4 1.5 1.5-1e-7 -0.011048 5.5h-1.5v1.5h5v-1.5h-1.5l0.011048-5.5 1.5 1e-7 -0.011048-1.5h-1.5v-3c0-0.40039 0.4-1.0992 1.1992-1.0996 0.80078-3.906e-4 1.3008 0.6996 1.3008 1.0996h1.5c0-1.5-1.4-2.5-3-2.5z" fill="#000000"/><path d="m11.5 5.5c-1.2 0.63333-2.5 2.2167-2.5 4.75s1.3 4.1167 2.5 4.75v-2c-0.90466-0.85239-1-1.807-1-2.757s0.22899-2.0255 1-2.743zm1 0v2c0.90925 0.85697 1 1.7961 1 2.7461 0 1.1017-0.23054 2.038-1 2.7539v2c1.2-0.63334 2.5-2.2167 2.5-4.75s-1.3-4.1167-2.5-4.75z" fill="#f26522" stroke-width="1.1937"/></svg>

<svg width="16" height="16" xmlns="http://www.w3.org/2000/svg"><path d="M7 1C5.4 1 4 2 4 4v2.5H2.511V8h1.5L4 13.5H2.5V15h5v-1.5H6L6.011 8h1.5L7.5 6.5H6v-3c0-.4.4-1.1 1.2-1.1.8 0 1.3.7 1.3 1.1H10C10 2 8.6 1 7 1z"/><path d="M11.5 5.5C10.3 6.133 9 7.717 9 10.25s1.3 4.117 2.5 4.75v-2c-.905-.852-1-1.807-1-2.757s.229-2.026 1-2.743zm1 0v2c.91.857 1 1.796 1 2.746 0 1.102-.23 2.038-1 2.754v2c1.2-.633 2.5-2.217 2.5-4.75s-1.3-4.117-2.5-4.75z" fill="#f26522"/></svg>
